X:1
T:Title
%%score { ( 1 3 ) | ( 2 4 ) }
L:1/8
M:4/4
K:Eb
V:1 treble nm="Grand Piano"
V:3 treble 
V:2 bass 
V:4 bass 
V:1
 z4 z2[Q:1/4=100] E2 | G2 [GB]2 [EG]2 [DF]2 | E2 B2 B4 | c2 ec B2 G2 | %4
[M:7/8] [=A,EF]2 [A,C]2 [B,DF]3 |[M:1/4] [G,B,E]2 |[M:4/4] [B,EG]2 [EGB]2 [B,EG]2 [A,DF]2 | %7
 E2 B2 B3 B | c e3 G2 [A,DF]2 | [G,E]6 z2 | [GB]2 [GB]2 [GB]2 [GB]2 | [GB]2- [G,GB]2 [GB]4 | %12
 [GB]2 [GB]2 [Ac]BG[GB] |[M:3/4] [Ge]6 |[M:1/4] [E_de]2 |[M:4/4] [Ece]3 [EBd] [EAc]2 [Ae]2 | %16
 [Ge] [GB]3 [GB]2 [EAc]2 | [EGB] [Ge]3 [B,EG]2 [A,DF]2 |[M:3/4] [G,E]6 |] %19
V:2
 z4 z2 [E,G,B,]2 | [E,B,E]2 [E,E]2 [E,B,]2 [B,,A,]2 | [E,G,]2 [F,A,D]2[K:treble] [G,B,E]4 | %3
 [A,E]2 [A,CA][A,EA] [G,E]2[K:bass] [E,B,E]2 |[M:7/8] C,2 F,2 B,,3 |[M:1/4] E,2 | %6
[M:4/4] E,2 E,2 E,2 B,,2 | [E,G,]2 [F,A,D]2[K:treble] [G,B,E]3 [G,E] | %8
 [A,E] [A,CA]3 [B,E]2[K:bass] B,,2 | E,6 z2 | E,2 B,,2 E,2 B,,2 | z B, z B, z2 E2 | z4 [E,E]2 z2 | %13
[M:3/4] z B, G,B, E2 |[M:1/4] G,2 |[M:4/4] A,3 A, A,2 [A,C]2 | [E,B,] [E,E]3 [E,E]2 A,2 | %17
 B, B,3 B,,2 B,,2 |[M:3/4] E,6 |] %19
V:3
 x8 | x8 | x8 | x8 |[M:7/8] x7 |[M:1/4] x2 |[M:4/4] x8 | x8 | x8 | x8 | E4 E4 | .E2 z2 E2 z2 | %12
 E4 z2 E2 |[M:3/4] .E2 z2 z2 |[M:1/4] x2 |[M:4/4] x8 | x8 | x8 |[M:3/4] x6 |] %19
V:4
 x8 | x8 | x4[K:treble] x4 | x6[K:bass] x2 |[M:7/8] x7 |[M:1/4] x2 |[M:4/4] x8 | x4[K:treble] x4 | %8
 x6[K:bass] x2 | x8 | x8 | E,2 B,,2 E,4 | E,2 B,,2 z GB,,E, |[M:3/4] E,6 |[M:1/4] x2 |[M:4/4] x8 | %16
 x8 | x8 |[M:3/4] x6 |] %19

